X: 623
T: Across The Hill
R: jig
M: 6/8
K: Dmixolydian
DEG GED|AEG GED|DEG GED|1 AcG GED:|2 BcG GED||
|:Adc cdA|ABc cdA|AdB cde|dcA GcA|
Adc cdA|ABc cde|dcd cAG|1 AcA GcA:|2 AcA GEG||
|:ABc edg-|gBd GBD|ABc edB|AGA BGD|
ABc edg-|gBd ega|{b}agc ~e2d|1 Gcc EGA:|2 Gcc EGD||

